svgs/sharp-regular/solar-panel.svg

<svg xmlns="http://www.w3.org/2000/svg" viewBox="0 0 640 512"><!--! Font Awesome Pro 6.6.0 by @fontawesome - https://fontawesome.com License - https://fontawesome.com/license (Commercial License) Copyright 2024 Fonticons, Inc. --><path d="M68.5 0L88 0 552 0l19.5 0 4 19.1 64 304 .5 2.4 0 2.5 0 32 0 24-24 0-272 0 0 80 80 0 24 0 0 48-24 0-208 0-24 0 0-48 24 0 80 0 0-80L24 384 0 384l0-24 0-32 0-2.5 .5-2.4 64-304L68.5 0zm5.3 208L48 330.5l0 5.5 137.5 0 12.8-128L73.8 208zm10.1-48l119.2 0L214.3 48 107.5 48 83.9 160zm162.6 48L233.7 336l172.6 0L393.5 208l-147 0zm142.2-48L377.5 48l-115 0L251.3 160l137.4 0zm53 48l12.8 128L592 336l0-5.5L566.2 208l-124.5 0zm114.4-48L532.5 48 425.7 48l11.2 112 119.2 0z"/></svg>

<svg xmlns="http://www.w3.org/2000/svg" viewBox="0 0 640 512"><!--! Font Awesome Pro 6.4.0 by @fontawesome - https://fontawesome.com License - https://fontawesome.com/license (Commercial License) Copyright 2023 Fonticons, Inc. --><path d="M68.5 0H88 552h19.5l4 19.1 64 304 .5 2.4V328v32 24H616 344v80h80 24v48H424 216 192V464h24 80V384H24 0V360 328v-2.5l.5-2.4 64-304L68.5 0zm5.3 208L48 330.5V336H185.5l12.8-128H73.8zm10.1-48H203.1L214.3 48H107.5L83.9 160zm162.6 48L233.7 336H406.3L393.5 208h-147zm142.2-48L377.5 48h-115L251.3 160H388.7zm53 48l12.8 128H592v-5.5L566.2 208H441.7zm114.4-48L532.5 48H425.7l11.2 112H556.1z"/></svg>
